X: 36570
T: Shady Grove
R: reel
M: 4/4
K: Gmajor
A2 AA A2 AA|B2 A2 G4|A2 AA c2 d2|e4 e4|
g3 g e2 e2|d3 BA G3|A2 B2 D2 B2|A4 A4:|

